X: 23666
T: Linda Ray's
R: reel
M: 4/4
K: Amajor
af|ecAc ~B2cB|ABcd e>z ag|fedf ecAc|(3dcB (3cBA EGBc|
dE (3EEE cE (3EEE|BAGA Bcdf|egaf ecAc|(B^AB)c =A2:|
cA|BE~E2 GEGA|Bcdf ecA(c|[F3d3]) B ~c3A|~B3c BAGA|
BE~E2 GEGA|Bcdf ecAc|AGAc (3dcB (3cBA|~B3c A2 cA|
BE~E2 GEGA|Bcdf ecAc|dafd cdec|~B3c BAGA|
BE~E2 GEGA|Bcdf ecAc|AGAc (3dcB (3cBA|~B3c A2||

